**kern	**kern
*staff2	*staff1
*clefF4	*clefG2
*k[b-e-a-]	*k[b-e-a-]
*M2/4	*M2/4
*E-:	*E-
=-	=-
2E- 2G 2B-	8.b-L 8.g
.	(32ccLL
.	32b-JJJ
.	8a-L)
.	8g'J
=146	=146
2D 2F 2B-	8fL 8a-
.	8fJ 8a-
.	8fL 8a-
.	16ffL
.	16ggJJ
=147	=147
8BB-L 8D	16aa-LL
.	16gg
8BB-J 8D	16ff
.	16ee-JJ
8BB-L 8D	16ddLL
.	16cc
8BB-J 8D	16b-
.	16a-JJ
=148	=148
8E-L 8G	8gL
8FJ 8A-	8a-J
8G 8B-	8b-
8r	8r
=149	=149
2E- 2G	8.b-L 8.g
.	(32ccLL
.	32b-JJJ
.	8a-L)
.	8g'J
=150	=150
2AA- 2E- 2F	8ccL
.	8ccJ
.	8ccL
.	16ee-L
.	16ddJJ
=151	=151
4r	16ccLL
.	16b-
.	16a-
.	16gJJ
4BB- 4D 4A-	8fL
.	8b-J
=152	=152
8E-L 8G	4e-
8BB-J	.
4EE-	4r
==	==
*-	*-
